zelenograd/img/flag.svg

<?xml version="1.0" encoding="UTF-8" standalone="no"?>
<svg
   xmlns:dc="http://purl.org/dc/elements/1.1/"
   xmlns:cc="http://creativecommons.org/ns#"
   xmlns:rdf="http://www.w3.org/1999/02/22-rdf-syntax-ns#"
   xmlns:svg="http://www.w3.org/2000/svg"
   xmlns="http://www.w3.org/2000/svg"
   xmlns:sodipodi="http://sodipodi.sourceforge.net/DTD/sodipodi-0.dtd"
   xmlns:inkscape="http://www.inkscape.org/namespaces/inkscape"
   width="297.32639mm"
   height="197.72713mm"
   viewBox="0 0 297.32639 197.72713"
   version="1.1"
   id="svg8"
   sodipodi:docname="рисунок.svg"
   inkscape:version="1.0.1 (3bc2e813f5, 2020-09-07)">
  <defs
     id="defs2" />
  <sodipodi:namedview
     id="base"
     pagecolor="#ffffff"
     bordercolor="#666666"
     borderopacity="1.0"
     inkscape:pageopacity="0.0"
     inkscape:pageshadow="2"
     inkscape:zoom="0.7"
     inkscape:cx="799.61172"
     inkscape:cy="401.44581"
     inkscape:document-units="mm"
     inkscape:current-layer="layer1"
     inkscape:document-rotation="0"
     showgrid="false"
     inkscape:window-width="1858"
     inkscape:window-height="1057"
     inkscape:window-x="54"
     inkscape:window-y="-8"
     inkscape:window-maximized="1"
     fit-margin-top="0"
     fit-margin-left="0"
     fit-margin-right="0"
     fit-margin-bottom="0" />
  <metadata
     id="metadata5">
    <rdf:RDF>
      <cc:Work
         rdf:about="">
        <dc:format>image/svg+xml</dc:format>
        <dc:type
           rdf:resource="http://purl.org/dc/dcmitype/StillImage" />
        <dc:title></dc:title>
      </cc:Work>
    </rdf:RDF>
  </metadata>
  <g
     inkscape:label="Слой 1"
     inkscape:groupmode="layer"
     id="layer1"
     transform="translate(-0.02867203,-0.48190741)">
    <g
       id="g74"
       transform="matrix(1.4866265,0,0,1.4866265,0.02867203,0.48771454)">
      <g
         id="background">
        <path
           style="fill:#46ba7c;fill-opacity:1;fill-rule:evenodd;stroke:none;stroke-width:1px;stroke-linecap:butt;stroke-linejoin:miter;stroke-opacity:1"
           d="M 0,119 179,0 H 0 Z"
           id="green-tri" />
        <path
           style="fill:#ffffff;fill-opacity:1;fill-rule:evenodd;stroke:none;stroke-width:1px;stroke-linecap:butt;stroke-linejoin:miter;stroke-opacity:1"
           d="m 0,119 v 14 L 200,0 h -21 z"
           id="white-line" />
        <path
           style="fill:#fce907;fill-opacity:1;fill-rule:evenodd;stroke:none;stroke-width:1px;stroke-linecap:butt;stroke-linejoin:miter;stroke-opacity:1"
           d="M 200,-0.00390625 0,133 H 22.996094 L 200,15 Z"
           id="yellow-line" />
        <path
           style="fill:#ed1c24;fill-opacity:1;fill-rule:evenodd;stroke:none;stroke-width:1px;stroke-linecap:butt;stroke-linejoin:miter;stroke-opacity:1"
           d="M 200,15 23,133 h 177.00073 z"
           id="red-tri" />
      </g>
      <g
         id="horizontal-lines">
        <path
           style="fill:#fce907;fill-opacity:1;fill-rule:evenodd;stroke:#fce907;stroke-width:1px;stroke-linecap:butt;stroke-linejoin:miter;stroke-opacity:1"
           d="M 63,31.5 H 17"
           id="horiz-1" />
        <path
           style="fill:#fce907;fill-opacity:1;fill-rule:evenodd;stroke:#fce907;stroke-width:1px;stroke-linecap:butt;stroke-linejoin:miter;stroke-opacity:1"
           d="M 63,34.3 H 17"
           id="horiz-2" />
        <path
           style="fill:#fce907;fill-opacity:1;fill-rule:evenodd;stroke:#fce907;stroke-width:1px;stroke-linecap:butt;stroke-linejoin:miter;stroke-opacity:1"
           d="M 63,37.1 H 17"
           id="horiz-3" />
        <path
           style="fill:#fce907;fill-opacity:1;fill-rule:evenodd;stroke:#fce907;stroke-width:1px;stroke-linecap:butt;stroke-linejoin:miter;stroke-opacity:1"
           d="M 63,39.9 H 17"
           id="horiz-4" />
        <path
           style="fill:#fce907;fill-opacity:1;fill-rule:evenodd;stroke:#fce907;stroke-width:1px;stroke-linecap:butt;stroke-linejoin:miter;stroke-opacity:1"
           d="M 63,42.7 H 17"
           id="horiz-5" />
        <path
           style="fill:#fce907;fill-opacity:1;fill-rule:evenodd;stroke:#fce907;stroke-width:0.99998px;stroke-linecap:butt;stroke-linejoin:miter;stroke-opacity:1"
           d="M 63,45.5 H 17"
           id="horiz-6" />
      </g>
      <g
         id="vertical-lines">
        <path
           style="fill:#fce907;fill-opacity:1;fill-rule:evenodd;stroke:#fce907;stroke-width:1px;stroke-linecap:butt;stroke-linejoin:miter;stroke-opacity:1"
           d="M 32.5,16 V 61"
           id="vert-1" />
        <path
           style="fill:#fce907;fill-opacity:1;fill-rule:evenodd;stroke:#fce907;stroke-width:1px;stroke-linecap:butt;stroke-linejoin:miter;stroke-opacity:1"
           d="M 35.5,16 V 61"
           id="vert-2" />
        <path
           style="fill:#fce907;fill-opacity:1;fill-rule:evenodd;stroke:#fce907;stroke-width:1px;stroke-linecap:butt;stroke-linejoin:miter;stroke-opacity:1"
           d="M 38.5,16 V 61"
           id="vert-3" />
        <path
           style="fill:#fce907;fill-opacity:1;fill-rule:evenodd;stroke:#fce907;stroke-width:1px;stroke-linecap:butt;stroke-linejoin:miter;stroke-opacity:1"
           d="M 41.5,16 V 61"
           id="vert-4" />
        <path
           style="fill:#fce907;fill-opacity:1;fill-rule:evenodd;stroke:#fce907;stroke-width:1px;stroke-linecap:butt;stroke-linejoin:miter;stroke-opacity:1"
           d="M 44.5,16 V 61"
           id="vert-5" />
        <path
           style="fill:#fce907;fill-opacity:1;fill-rule:evenodd;stroke:#fce907;stroke-width:1px;stroke-linecap:butt;stroke-linejoin:miter;stroke-opacity:1"
           d="M 47.5,16 V 61"
           id="vert-6" />
      </g>
      <g
         id="squares">
        <rect
           style="opacity:1;fill:#fce907;fill-opacity:1;fill-rule:evenodd;stroke:none;stroke-width:3.5;stroke-linecap:round;stroke-miterlimit:4;stroke-dasharray:none;stroke-opacity:1"
           id="square-yellow"
           width="17"
           height="16"
           x="31.5"
           y="30.5" />
        <rect
           style="opacity:1;fill:#ffffff;fill-opacity:1;fill-rule:evenodd;stroke:none;stroke-width:3.5;stroke-linecap:round;stroke-miterlimit:4;stroke-dasharray:none;stroke-opacity:1"
           id="square-white"
           width="9"
           height="8.5"
           x="35.5"
           y="34.25" />
      </g>
      <g
         id="shtyki">
        <path
           style="fill:#d2d3d4;fill-opacity:1;fill-rule:evenodd;stroke:none;stroke-width:1px;stroke-linecap:butt;stroke-linejoin:miter;stroke-opacity:1"
           d="M 172.5,115.5 171,99 l -3,-37 -3.5,0.5 -1.5,53 z"
           id="shtyki-inside" />
        <path
           style="fill:#e8efef;fill-opacity:1;fill-rule:evenodd;stroke:#c4c3c3;stroke-width:1.00003px;stroke-linecap:butt;stroke-linejoin:miter;stroke-opacity:1"
           d="m 167.5,115 v -7.5 h -3 l 1,-44 h 2 l 3.5,37 h 4.5 l -6.5,-44 -5.5,5 -2.5,53.5 z"
           id="shtyki-outline" />
        <path
           style="fill:#e8efef;fill-opacity:1;fill-rule:evenodd;stroke:#c4c3c3;stroke-width:1px;stroke-linecap:butt;stroke-linejoin:miter;stroke-opacity:1"
           d="m 141.5,115.5 -3,3 v 1 h 42 v -2 l -2,-2 z"
           id="shtyki-plinth" />
      </g>
    </g>
  </g>
</svg>

<?xml version="1.0" encoding="UTF-8" standalone="no"?>
<!DOCTYPE svg PUBLIC "-//W3C//DTD SVG 1.1//EN" "http://www.w3.org/Graphics/SVG/1.1/DTD/svg11.dtd">
<svg width="200px" height="133px" xmlns="http://www.w3.org/2000/svg" version="1.1">

	<!-- IMAGE UNDER POBLIC DOMAIN
		This work is not an object of copyright according to
		Part IV of Civil Code No. 230-FZ of the Russian Federation of December 18, 2006. -->

	<title>Flag of Zelenograd (Moscow)</title>
	<desc>Scalable Vector Graphics Version</desc>
	<metadata>
		<rdf:RDF xmlns:rdf="http://www.w3.org/TR/REC-rdf-syntax/" xmlns:rdfs="http://www.w3.org/TR/2000/CR-rdf-schema-20000327/" xmlns:dc="http://purl.org/dc/elements/1.1/">
			<rdf:Description
				dc:creator="Harald Pfeiffer"
				dc:rights="Public Domain"
				dc:subject="SVG flag of Zelenograd"
				dc:title="Flag of Zelenograd"
				dc:source="http://commons.wikimedia.org"
				dc:format="image/svg+xml"
				dc:description="Vectorized version"
				dc:date="2010-02-08"
				dc:language="en-IE"
			/>
		</rdf:RDF>
	</metadata>

	<g id="background">
		<path
		 style="fill:#46ba7c;fill-opacity:1;fill-rule:evenodd;stroke:none;stroke-width:1px;stroke-linecap:butt;stroke-linejoin:miter;stroke-opacity:1"
		 d="M 0,119 L 179,0 L 0,0 L 0,119 z"
		 id="green-tri" />
		<path
		style="fill:#ffffff;fill-rule:evenodd;stroke:none;stroke-width:1px;stroke-linecap:butt;stroke-linejoin:miter;stroke-opacity:1;fill-opacity:1"
		d="M 0,119 L 0,133 L 200,0 L 179,0 L 0,119 z"
		id="white-line" />
		<path
		 style="fill:#fce907;fill-rule:evenodd;stroke:none;stroke-width:1px;stroke-linecap:butt;stroke-linejoin:miter;stroke-opacity:1;fill-opacity:1"
		 d="M 200,-0.00390625 L 0,133 L 22.996094,133 L 200,15 L 200,-0.00390625 z"
		 id="yellow-line" />
		<path
		 style="fill:#ed1c24;fill-rule:evenodd;stroke:none;stroke-width:1px;stroke-linecap:butt;stroke-linejoin:miter;stroke-opacity:1;fill-opacity:1"
		 d="M 200,15 L 23,133 L 200.00073,133 L 200,15 z"
		 id="red-tri" />
	</g>
	<g id="horizontal-lines">
		<path
		 style="fill:#fce907;fill-opacity:1;fill-rule:evenodd;stroke:#fce907;stroke-width:1px;stroke-linecap:butt;stroke-linejoin:miter;stroke-opacity:1"
		 d="M 63,31.5 L 17,31.5"
		 id="horiz-1" />
		<path
		 style="fill:#fce907;fill-opacity:1;fill-rule:evenodd;stroke:#fce907;stroke-width:1px;stroke-linecap:butt;stroke-linejoin:miter;stroke-opacity:1"
		 d="M 63,34.3 L 17,34.3"
		 id="horiz-2" />
		<path
		 style="fill:#fce907;fill-opacity:1;fill-rule:evenodd;stroke:#fce907;stroke-width:1px;stroke-linecap:butt;stroke-linejoin:miter;stroke-opacity:1"
		 d="M 63,37.1 L 17,37.1"
		 id="horiz-3" />
		<path
		 style="fill:#fce907;fill-opacity:1;fill-rule:evenodd;stroke:#fce907;stroke-width:1.00000167px;stroke-linecap:butt;stroke-linejoin:miter;stroke-opacity:1"
		 d="M 63,39.9 L 17,39.9"
		 id="horiz-4" />
		<path
		 style="fill:#fce907;fill-opacity:1;fill-rule:evenodd;stroke:#fce907;stroke-width:1.00000167px;stroke-linecap:butt;stroke-linejoin:miter;stroke-opacity:1"
		 d="M 63,42.7 L 17,42.7"
		 id="horiz-5" />
		<path
		 style="fill:#fce907;fill-opacity:1;fill-rule:evenodd;stroke:#fce907;stroke-width:0.99998039px;stroke-linecap:butt;stroke-linejoin:miter;stroke-opacity:1"
		 d="M 63,45.5 L 17,45.5"
		 id="horiz-6" />
	</g>
	<g id="vertical-lines">
		<path
		 style="fill:#fce907;fill-rule:evenodd;stroke:#fce907;stroke-width:1px;stroke-linecap:butt;stroke-linejoin:miter;stroke-opacity:1;fill-opacity:1"
		 d="M 32.5,16 L 32.5,61"
		 id="vert-1" />
		<path
		 style="fill:#fce907;fill-opacity:1;fill-rule:evenodd;stroke:#fce907;stroke-width:1px;stroke-linecap:butt;stroke-linejoin:miter;stroke-opacity:1"
		 d="M 35.5,16 L 35.5,61"
		 id="vert-2" />
		<path
		 style="fill:#fce907;fill-opacity:1;fill-rule:evenodd;stroke:#fce907;stroke-width:1px;stroke-linecap:butt;stroke-linejoin:miter;stroke-opacity:1"
		 d="M 38.5,16 L 38.5,61"
		 id="vert-3" />
		<path
		 style="fill:#fce907;fill-opacity:1;fill-rule:evenodd;stroke:#fce907;stroke-width:1px;stroke-linecap:butt;stroke-linejoin:miter;stroke-opacity:1"
		 d="M 41.5,16 L 41.5,61"
		 id="vert-4" />
		<path
		 style="fill:#fce907;fill-opacity:1;fill-rule:evenodd;stroke:#fce907;stroke-width:1px;stroke-linecap:butt;stroke-linejoin:miter;stroke-opacity:1"
		 d="M 44.5,16 L 44.5,61"
		 id="vert-5" />
		<path
		style="fill:#fce907;fill-opacity:1;fill-rule:evenodd;stroke:#fce907;stroke-width:1px;stroke-linecap:butt;stroke-linejoin:miter;stroke-opacity:1"
		d="M 47.5,16 L 47.5,61"
		id="vert-6" />
	</g>
	<g id="squares">
		<rect
		 style="opacity:1;fill:#fce907;fill-opacity:1;fill-rule:evenodd;stroke:none;stroke-width:3.50000000000000000;stroke-linecap:round;stroke-miterlimit:4;stroke-dasharray:none;stroke-opacity:1"
		 id="square-yellow"
		 width="17" height="16" x="31.5" y="30.5" />
		<rect
		 style="opacity:1;fill:#ffffff;fill-opacity:1;fill-rule:evenodd;stroke:none;stroke-width:3.5;stroke-linecap:round;stroke-miterlimit:4;stroke-dasharray:none;stroke-opacity:1"
		 id="square-white"
		 width="9" height="8.5" x="35.5" y="34.25" />
	</g>
	<!--path
	 style="fill:#fce907;fill-rule:evenodd;stroke:none;stroke-width:1px;stroke-linecap:butt;stroke-linejoin:miter;stroke-opacity:1;fill-opacity:1"
	 d="M 142.5,61 L 157.5,61 L 157.5,16 L 142.5,16 L 142.5,61 z"
	 id="rect-yellow" /-->
	<g id="shtyki">
		<path
		 style="fill:#d2d3d4;fill-rule:evenodd;stroke:none;stroke-width:1px;stroke-linecap:butt;stroke-linejoin:miter;stroke-opacity:1;fill-opacity:1"
		 d="M 172.5,115.5 L 171,99 L 168,62 L 164.5,62.5 L 163,115.5 L 172.5,115.5 z"
		 id="shtyki-inside"/>
		<path
		 style="fill:#e8efef;fill-opacity:1;fill-rule:evenodd;stroke:#c4c3c3;stroke-width:1.00003409px;stroke-linecap:butt;stroke-linejoin:miter;stroke-opacity:1"
		 d="M 167.5,115 L 167.5,107.5 L 164.5,107.5 L 165.5,63.5 L 167.5,63.5 L 171,100.5 L 175.5,100.5 L 169,56.5 L 163.5,61.5 L 161,115 L 167.5,115 z"
		 id="shtyki-outline"/>
		<path
		 style="fill:#e8efef;fill-rule:evenodd;stroke:#c4c3c3;stroke-width:1px;stroke-linecap:butt;stroke-linejoin:miter;stroke-opacity:1;fill-opacity:1"
		 d="M 141.5,115.5 L 138.5,118.5 L 138.5,119.5 L 180.5,119.5 L 180.5,117.5 L 178.5,115.5 L 141.5,115.5 z"
		 id="shtyki-plinth" />
	</g>
</svg>
